X:0958
M:C
L:1/8
K:E Dorian
d|B<EB>G B>GB<e|d>BA>G FADd|G>EB>G B>EB>e|fe^de E2E :|
  e>fge  f>dec |d>BA>G FADd|B<EB>G Bcde  |fe^de E2E |]

